X: 4192
T: Blue, The
R: jig
M: 6/8
K: Aminor
|:"A7"A3 cBA|cBA a3|age _edc|"D7"d^de d=dc|
"A7"A3 cBA|cBA a3|age "D7"cAG|"E7"_EDC "A"A,3:|
|:"D7"^FAB cBA|^FAB cBA|"A7"^ce^f gfe|^ce^f gfe|
"D7"^FAB cBA|^FAB cBA|"A7"age "D7"cAG|"E7"_EDC "A"A,3:|
|:Acd _edc|Acd _edc|ega _bag|ega _bag|
Acd _edc|Acd _edc|age cAG|_EDC A,3:|

